assets/icons/bowtie/uE670-share.svg

<svg xmlns="http://www.w3.org/2000/svg" viewBox="0 0 448 448"><path d="M339.22 377.126c.905 4.06 1.436 8.25 1.436 12.56 0 32.19-26.125 58.314-58.342 58.314-32.19 0-58.314-26.125-58.314-58.314 0-32.218 26.125-58.31 58.314-58.31 16.154 0 30.78 6.56 41.344 17.187 36.656-29.313 60.342-74.093 60.342-124.563 0-36.328-12.624-69.484-33.126-96.375 8.66-7.14 15.875-15.78 21.376-25.625 27.312 33.156 43.75 75.656 43.75 122 0 62.687-30.314 118.093-76.78 153.126zm-45.563-377.126c-23.158 0-43.033 13.64-52.44 33.234-5.717-.53-11.372-1.234-17.217-1.234-71.03 0-132.906 38.687-166.125 96.047l.438-.047c11.72 0 22.844 2.406 33.156 6.5 28.781-42.5 77.433-70.5 132.531-70.5 4.094 0 8.03.53 12 .906 3.313 29.047 27.718 51.734 57.658 51.734 32.218 0 58.342-26.125 58.342-58.313 0-32.217-26.125-58.327-58.342-58.327zm-98.033 413.562c-2.124-7.655-3.624-15.562-3.624-23.876 0-3.47.47-6.813.875-10.154-56.344-11.282-102.03-51.657-120.188-104.907 25.22-6.437 43.97-29.11 43.97-56.312 0-32.22-26.126-58.313-58.345-58.313-32.187 0-58.312 26.094-58.312 58.313 0 25.437 16.406 46.844 39.156 54.812 19.438 73.064 80.344 129.157 156.47 140.437z"/></svg>

<svg xmlns="http://www.w3.org/2000/svg" viewBox="0 0 448 448"><path d="M339.22 377.126c.905 4.06 1.436 8.25 1.436 12.56 0 32.19-26.125 58.314-58.342 58.314-32.19 0-58.314-26.125-58.314-58.314 0-32.218 26.125-58.31 58.314-58.31 16.154 0 30.78 6.56 41.344 17.187C360.314 319.25 384 274.47 384 224c0-36.328-12.624-69.484-33.126-96.375 8.66-7.14 15.875-15.78 21.376-25.625C399.562 135.156 416 177.656 416 224c0 62.687-30.314 118.093-76.78 153.126zM293.657 0c-23.158 0-43.033 13.64-52.44 33.234C235.5 32.704 229.845 32 224 32c-71.03 0-132.906 38.687-166.125 96.047l.438-.047c11.72 0 22.844 2.406 33.156 6.5C120.25 92 168.902 64 224 64c4.094 0 8.03.53 12 .906 3.313 29.047 27.718 51.734 57.658 51.734 32.218 0 58.342-26.125 58.342-58.313C352 26.11 325.875 0 293.658 0zm-98.033 413.562C193.5 405.907 192 398 192 389.686c0-3.47.47-6.813.875-10.154-56.344-11.282-102.03-51.657-120.188-104.907 25.22-6.437 43.97-29.11 43.97-56.312 0-32.22-26.126-58.313-58.345-58.313C26.125 160 0 186.094 0 218.313c0 25.437 16.406 46.844 39.156 54.812 19.438 73.064 80.344 129.157 156.47 140.437z"/></svg>
